src/assets/duotone/Maximize3.svg

<?xml version="1.0" encoding="UTF-8"?>
<svg width="24" height="24" viewBox="0 0 24 24" xmlns="http://www.w3.org/2000/svg">
 <path d="M16.19 2H7.81C4.17 2 2 4.17 2 7.81V16.18C2 19.83 4.17 22 7.81 22H16.18C19.82 22 21.99 19.83 21.99 16.19V7.81C22 4.17 19.83 2 16.19 2Z" opacity=".4"/>
 <path d="m18.69 5.71c-0.08-0.18-0.22-0.33-0.41-0.41-0.09-0.03-0.18-0.05-0.28-0.05h-4c-0.41 0-0.75 0.34-0.75 0.75s0.34 0.75 0.75 0.75h2.19l-9.44 9.44v-2.19c0-0.41-0.34-0.75-0.75-0.75s-0.75 0.34-0.75 0.75v4c0 0.1 0.02 0.19 0.06 0.29 0.08 0.18 0.22 0.33 0.41 0.41 0.08 0.03 0.18 0.05 0.28 0.05h4c0.41 0 0.75-0.34 0.75-0.75s-0.34-0.75-0.75-0.75h-2.19l9.44-9.44v2.19c0 0.41 0.34 0.75 0.75 0.75s0.75-0.34 0.75-0.75v-4c0-0.1-0.02-0.19-0.06-0.29z"/>
</svg>

<svg width="24" height="24" viewBox="0 0 24 24"  xmlns="http://www.w3.org/2000/svg">
<path opacity="0.4" d="M16.19 2H7.81C4.17 2 2 4.17 2 7.81V16.18C2 19.83 4.17 22 7.81 22H16.18C19.82 22 21.99 19.83 21.99 16.19V7.81C22 4.17 19.83 2 16.19 2Z" />
<path d="M18.69 5.71C18.61 5.53 18.47 5.38 18.28 5.3C18.19 5.27 18.1 5.25 18 5.25H14C13.59 5.25 13.25 5.59 13.25 6C13.25 6.41 13.59 6.75 14 6.75H16.19L6.75 16.19V14C6.75 13.59 6.41 13.25 6 13.25C5.59 13.25 5.25 13.59 5.25 14V18C5.25 18.1 5.27 18.19 5.31 18.29C5.39 18.47 5.53 18.62 5.72 18.7C5.8 18.73 5.9 18.75 6 18.75H10C10.41 18.75 10.75 18.41 10.75 18C10.75 17.59 10.41 17.25 10 17.25H7.81L17.25 7.81V10C17.25 10.41 17.59 10.75 18 10.75C18.41 10.75 18.75 10.41 18.75 10V6C18.75 5.9 18.73 5.81 18.69 5.71Z" />
</svg>
